theme/dist/icons/arrow-right-white.svg

<svg fill="none" height="24" viewBox="0 0 24 24" width="24" xmlns="http://www.w3.org/2000/svg"><path d="m17.9461 11.4093-10.56563-8.25233c-.02761-.02174-.06079-.03524-.09573-.03897s-.07022.00247-.10179.01789c-.03158.01542-.05816.03943-.0767.06928s-.02829.06432-.02812.09946v1.81172c0 .11484.0539.22499.14297.29531l8.4375 6.58824-8.4375 6.5883c-.09141.0703-.14297.1805-.14297.2953v1.8118c0 .157.18047.2437.30234.1476l10.56563-8.2523c.0898-.0701.1624-.1597.2124-.262.0499-.1024.0759-.2148.0759-.3287s-.026-.2262-.0759-.3286c-.05-.1023-.1226-.1919-.2124-.262z" fill="#fff"/></svg>

<svg width="24" height="24" viewBox="0 0 24 24" fill="none" xmlns="http://www.w3.org/2000/svg"><path d="M17.9461 11.4093 7.38047 3.15697C7.35286 3.13523 7.31968 3.12173 7.28474 3.118 7.2498 3.11427 7.21452 3.12047 7.18295 3.13589 7.15137 3.15131 7.12479 3.17532 7.10625 3.20517 7.08771 3.23502 7.07796 3.26949 7.07813 3.30463V5.11635C7.07813 5.23119 7.13203 5.34134 7.2211 5.41166l8.4375 6.58824-8.4375 6.5883C7.12969 18.6585 7.07813 18.7687 7.07813 18.8835V20.6953C7.07813 20.8523 7.2586 20.939 7.38047 20.8429L17.9461 12.5906C18.0359 12.5205 18.1085 12.4309 18.1585 12.3286 18.2084 12.2262 18.2344 12.1138 18.2344 11.9999 18.2344 11.886 18.2084 11.7737 18.1585 11.6713 18.1085 11.569 18.0359 11.4794 17.9461 11.4093z" fill="#fff"/></svg>
